X: 2
T: Missa Ave Maria / Gloria
N: Derived from Fva1001b-Missa_Ave_Maria-Gloria.krn
C: Antoine de F\'evin
%%abc-version 2.0
%%abcx-abcm2ps-target-version 5.9.1 (29 Sep 2008)
%%abc-creator hum2abc beta
%%abcx-conversion-date 2019/02/16 20:34:23
%%abc-edited-by Jesse Rodin
%%abc-edited-by Richard Freedman (CRIM)
%%abcx-initial-encoding-date 2016/03/29/
%%humdrum-veritas 665580232
%%humdrum-veritas-data 4260219919
%%linebreak <none>
%%barnumbers 0
L: 1/4
M: 2/1
Q: 1/2=120
%%staves [1 2 3 4]
V: 1 clef=treble
V: 2 clef=treble-8
V: 3 clef=treble-8
V: 4 clef=bass
K: C
[V:1] z8 | 
[V:2] G4c4- | 
[V:3] z8 | 
[V:4] z4z4 | 
[V:1] z8 | 
[V:2] c4c4 | 
[V:3] z8 | 
[V:4] z8 | 
[V:1] z4G4 | 
[V:2] d4e4- | 
[V:3] z8 | 
[V:4] z8 | 
[V:1] c8 | 
[V:2] e2dcf4 | 
[V:3] z8 | 
[V:4] z8 | 
[V:1] c4d4 | 
[V:2] e2f4ed | 
[V:3] z8 | 
[V:4] z8 | 
[V:1] e6dc | 
[V:2] c4e4 | 
[V:3] z8 | 
[V:4] z8 | 
[V:1] f4e2f2- | 
[V:2] d4c2d2- | 
[V:3] z8 | 
[V:4] z8 | 
[V:1] f2edc4 | 
[V:2] d2cBA4 | 
[V:3] z8 | 
[V:4] z8 | 
[V:1] d4c2d2- | 
[V:2] G2d2e2f2 | 
[V:3] z8 | 
[V:4] z8 | 
[V:1] d2cBA4 | 
[V:2] d2g4^f2 | 
[V:3] z8 | 
[V:4] z8 | 
[V:1] z2G2A2B2 | 
[V:2] g4f2g2- | 
[V:3] z8 | 
[V:4] z8 | 
[V:1] G2c4B2 | 
[V:2] g2fed4 | 
[V:3] z4G4 | 
[V:4] z8 | 
[V:1] c8 | 
[V:2] c8 | 
[V:3] G4G4 | 
[V:4] C,4C,4 | 
[V:1] z8 | 
[V:2] z8 | 
[V:3] c4c2d2- | 
[V:4] C,4F,4 | 
[V:1] z8 | 
[V:2] z8 | 
[V:3] d2d2e2e2 | 
[V:4] F,2G,4G,2 | 
[V:1] z8 | 
[V:2] z8 | 
[V:3] c4z2c2 | 
[V:4] A,2A,2F,4 | 
[V:1] z8 | 
[V:2] z8 | 
[V:3] f6ed | 
[V:4] z2D,2A,2B,2 | 
[V:1] z8 | 
[V:2] z8 | 
[V:3] e4d2c2- | 
[V:4] C4B,2A,2- | 
[V:1] z4z4 | 
[V:2] z8 | 
[V:3] c2B2A4 | 
[V:4] A,G,G,4^F,2 | 
[V:1] z8 | 
[V:2] z8 | 
[V:3] GABcd2e2- | 
[V:4] G,3A,B,2C2- | 
[V:1] z8 | 
[V:2] z8 | 
[V:3] efg4^f2 | 
[V:4] CB,A,G,A,4 | 
[V:1] d4d4 | 
[V:2] z8 | 
[V:3] g8 | 
[V:4] G,4z4 | 
[V:1] d4e4 | 
[V:2] z4g4 | 
[V:3] z8 | 
[V:4] G,4C4 | 
[V:1] d2e3dc2- | 
[V:2] g4e4 | 
[V:3] z8 | 
[V:4] B,2C3B,A,2- | 
[V:1] cBAGA4 | 
[V:2] f4f4 | 
[V:3] c4c4 | 
[V:4] A,G,F,E,F,3E, | 
[V:1] z2G3ABc | 
[V:2] e4d2g2- | 
[V:3] c4d4- | 
[V:4] C,4G,3A, | 
[V:1] d2e4dc | 
[V:2] gfedc4 | 
[V:3] d2c2e2f2 | 
[V:4] B,2C2A,4 | 
[V:1] B2e3dd2- | 
[V:2] d2e2c2d2 | 
[V:3] g4e2f2- | 
[V:4] G,2C4B,2 | 
[V:1] dcc4B2 | 
[V:2] e2f2g4 | 
[V:3] fedcd4 | 
[V:4] A,4G,4 | 
[V:1] c8 | 
[V:2] e4z4 | 
[V:3] c8 | 
[V:4] C,8- | 
[V:1] z4c4 | 
[V:2] c6d2 | 
[V:3] z8 | 
[V:4] C,8 | 
[V:1] c4d4 | 
[V:2] e2f4ed | 
[V:3] z8 | 
[V:4] z8 | 
[V:1] e3de2f2- | 
[V:2] cdefg2a2- | 
[V:3] z8 | 
[V:4] z8 | 
[V:1] fee4d2 | 
[V:2] agfef4 | 
[V:3] z8 | 
[V:4] z8 | 
[V:1] e4z2e2 | 
[V:2] e8 | 
[V:3] z8 | 
[V:4] z8 | 
[V:1] e2e2e3d/c/ | 
[V:2] z2g2g2g2 | 
[V:3] z8 | 
[V:4] z8 | 
[V:1] BABcd4- | 
[V:2] g2fedcde | 
[V:3] z8 | 
[V:4] z8 | 
[V:1] d2d2e3d | 
[V:2] f2g2e2a2- | 
[V:3] z8 | 
[V:4] z4C,4 | 
[V:1] c2B2A2A2 | 
[V:2] agg4^f2 | 
[V:3] z8 | 
[V:4] C,2C,2D,4 | 
[V:1] G4z4 | 
[V:2] g4z4 | 
[V:3] c4c2c2 | 
[V:4] E,3D,E,2F,2- | 
[V:1] z8 | 
[V:2] z8 | 
[V:3] d4e3d | 
[V:4] F,2E,D,C,D,E,F, | 
[V:1] z8 | 
[V:2] z8 | 
[V:3] e2f3ee2- | 
[V:4] G,2A,3G,F,E, | 
[V:1] z8 | 
[V:2] z8 | 
[V:3] e2d2e4 | 
[V:4] F,4E,4- | 
[V:1] z8 | 
[V:2] z8 | 
[V:3] z2e2e2e2 | 
[V:4] E,4z2G,2 | 
[V:1] z8 | 
[V:2] z8 | 
[V:3] e2dcBABc | 
[V:4] G,2G,2G,2F,E, | 
[V:1] z8 | 
[V:2] z8 | 
[V:3] d2e4d2- | 
[V:4] D,2C,2G,4 | 
[V:1] z8 | 
[V:2] z8 | 
[V:3] dcc4B2 | 
[V:4] E,2F,2D,4 | 
[V:1] z4z2e2- | 
[V:2] z4z2g2- | 
[V:3] c4z2c2- | 
[V:4] C,4z2C,2- | 
[V:1] e2e2e2e2 | 
[V:2] g2g2g2g2 | 
[V:3] c2c2c2c2 | 
[V:4] C,2C,2C,2C,2 | 
[V:1] f6e2- | 
[V:2] a6g2- | 
[V:3] c6c2 | 
[V:4] F,6C,2 | 
[V:1] e2d2c2c2 | 
[V:2] g2f2e2e2 | 
[V:3] A2B2G4 | 
[V:4] D,2B,,2C,4 | 
[V:1] B8 | 
[V:2] d4z4 | 
[V:3] G4z2G2 | 
[V:4] G,4z2E,2 | 
[V:1] z8 | 
[V:2] z8 | 
[V:3] A4B4 | 
[V:4] F,4D,4 | 
[V:1] z2G2A4 | 
[V:2] z2e2f4 | 
[V:3] c4z4 | 
[V:4] C,4z4 | 
[V:1] B4c4 | 
[V:2] d4c4 | 
[V:3] z2G2A2c2- | 
[V:4] z8 | 
[V:1] z8 | 
[V:2] z8 | 
[V:3] c2B2c2e2- | 
[V:4] z2G,2A,4 | 
[V:1] z4z2B2 | 
[V:2] z4z2g2 | 
[V:3] e2d2e4 | 
[V:4] F,4E,4 | 
[V:1] c4d4 | 
[V:2] a4f4 | 
[V:3] z2A2B4 | 
[V:4] z8 | 
[V:1] e3dB2c2- | 
[V:2] e8 | 
[V:3] c3BG4 | 
[V:4] z4E,4 | 
[V:1] cBAGA4 | 
[V:2] c6d2 | 
[V:3] A8 | 
[V:4] F,8 | 
[V:1] G4z2g2- | 
[V:2] e4g4- | 
[V:3] B4G4 | 
[V:4] E,8 | 
[V:1] gfe4dc | 
[V:2] g4g4 | 
[V:3] c8 | 
[V:4] C,8 | 
[V:1] B8 ||  
[V:2] g8 ||  
[V:3] d8 ||  
[V:4] G,8 ||  
[V:1]  [K:C] [K:clef=treble][M:2/1]z8 [I:setbarnb 64]| 
[V:2]  [K:C] [K:clef=treble-8][M:2/1]d6d2 | 
[V:3]  [K:C] [K:clef=treble-8][M:2/1]z8 | 
[V:4]  [K:C] [K:clef=bass][M:2/1]z8 | 
[V:1] z8 | 
[V:2] e4f4 | 
[V:3] z8 | 
[V:4] z8 | 
[V:1] z8 | 
[V:2] g6fe | 
[V:3] z8 | 
[V:4] G,6G,2 | 
[V:1] z8 | 
[V:2] fedcd4 | 
[V:3] z8 | 
[V:4] A,4B,4 | 
[V:1] z8 | 
[V:2] z2c3def | 
[V:3] z8 | 
[V:4] C6B,A, | 
[V:1] z8 | 
[V:2] g2a4gf | 
[V:3] z8 | 
[V:4] B,2C2A,4 | 
[V:1] z8 | 
[V:2] e2d3efg | 
[V:3] z8 | 
[V:4] G,3A,B,CD2 | 
[V:1] z8 | 
[V:2] a2g4^f2 | 
[V:3] z8 | 
[V:4] CB,A,G,A,4 | 
[V:1] z8 | 
[V:2] g4z2d2 | 
[V:3] z8 | 
[V:4] G,8 | 
[V:1] z8 | 
[V:2] g6f2 | 
[V:3] z8 | 
[V:4] z2G,2C4- | 
[V:1] z8 | 
[V:2] e2d2f2e2- | 
[V:3] z8 | 
[V:4] C2B,2A,2G,2 | 
[V:1] z8 | 
[V:2] e2dcBAd2- | 
[V:3] z8 | 
[V:4] A,4G,3A, | 
[V:1] z8 | 
[V:2] d2c4BA | 
[V:3] z8 | 
[V:4] B,G,A,4G,F, | 
[V:1] z8 | 
[V:2] G3ABcd2 | 
[V:3] z8 | 
[V:4] E,D,G,3F,B,2 | 
[V:1] z8 | 
[V:2] cBAGA4 | 
[V:3] z8 | 
[V:4] A,2G,4^F,2 | 
[V:1] z8 | 
[V:2] G8 | 
[V:3] z8 | 
[V:4] G,4z2G,2- | 
[V:1] z8 | 
[V:2] z2G3ABc | 
[V:3] z8 | 
[V:4] G,A,B,CD2G,2- | 
[V:1] z8 | 
[V:2] d2G2c3d | 
[V:3] z8 | 
[V:4] G,F,E,D,E,2C,2- | 
[V:1] z8 | 
[V:2] efg4fe | 
[V:3] z8 | 
[V:4] C,D,E,F,G,4- | 
[V:1] z8 | 
[V:2] d2e4dc | 
[V:3] z8 | 
[V:4] G,4z2G,2- | 
[V:1] z8 | 
[V:2] BAd4cB | 
[V:3] z8 | 
[V:4] G,2F,E,D,C,F,2- | 
[V:1] z8 | 
[V:2] AGc3Be2 | 
[V:3] z8 | 
[V:4] F,E,A,3G,G,2 | 
[V:1] z4z4 | 
[V:2] dcc4B2 | 
[V:3] z8 | 
[V:4] F,2E,2D,4 | 
[V:1] z8 ||  
[V:2] c8 ||  
[V:3] z8 ||  
[V:4] C,8 ||  
[V:1]  [K:C] [K:clef=treble][M:2/1]c4c2c2 [I:setbarnb 87]| 
[V:2]  [K:C] [K:clef=treble-8][M:2/1]c4c2c2 | 
[V:3]  [K:C] [K:clef=treble-8][M:2/1]z8 | 
[V:4]  [K:C] [K:clef=bass][M:2/1]z8 | 
[V:1] d4B2c2- | 
[V:2] g4g2a2- | 
[V:3] z8 | 
[V:4] z8 | 
[V:1] cBAGA4 | 
[V:2] agg4^f2 | 
[V:3] z8 | 
[V:4] z8 | 
[V:1] G8 | 
[V:2] g8 | 
[V:3] c4c2c2 | 
[V:4] C,4C,2C,2 | 
[V:1] z8 | 
[V:2] z8 | 
[V:3] d4B2c2- | 
[V:4] G,4G,2A,2- | 
[V:1] z8 | 
[V:2] z8 | 
[V:3] cBAGA4 | 
[V:4] A,G,G,4^F,2 | 
[V:1] G4G2G2 | 
[V:2] z8 | 
[V:3] G8 | 
[V:4] G,8- | 
[V:1] d6e2- | 
[V:2] z8 | 
[V:3] z8 | 
[V:4] G,8 | 
[V:1] edcBc4 | 
[V:2] c4c2c2 | 
[V:3] z8 | 
[V:4] z8 | 
[V:1] B2d4c2- | 
[V:2] g4g2a2- | 
[V:3] z8 | 
[V:4] z8 | 
[V:1] cBAGA4 | 
[V:2] agg4^f2 | 
[V:3] z8 | 
[V:4] z8 | 
[V:1] G8 | 
[V:2] g8 | 
[V:3] G4G2G2 | 
[V:4] z8 | 
[V:1] z8 | 
[V:2] G8 | 
[V:3] d4d2e2- | 
[V:4] z8 | 
[V:1] z8 | 
[V:2] z8 | 
[V:3] edcBc4 | 
[V:4] C,4C,2C,2 | 
[V:1] z8 | 
[V:2] z8 | 
[V:3] B2d4c2- | 
[V:4] G,4G,2A,2- | 
[V:1] z8 | 
[V:2] z8 | 
[V:3] cBAGA4 | 
[V:4] A,G,G,4^F,2 | 
[V:1] d6d2 | 
[V:2] z4g4- | 
[V:3] G4z4 | 
[V:4] G,4z4 | 
[V:1] d4z2d2 | 
[V:2] g2g2g4 | 
[V:3] B6B2 | 
[V:4] G,6G,2 | 
[V:1] d4e4 | 
[V:2] z2g2g2a2- | 
[V:3] B4z4 | 
[V:4] G,4z4 | 
[V:1] c2d3cBA | 
[V:2] agfef2g2 | 
[V:3] z8 | 
[V:4] z8 | 
[V:1] B2c2A4 | 
[V:2] d2g4^f2 | 
[V:3] z2c2d4 | 
[V:4] z8 | 
[V:1] G4z4 | 
[V:2] g4z4 | 
[V:3] e4c2f2- | 
[V:4] z2G,2A,4 | 
[V:1] z8 | 
[V:2] z8 | 
[V:3] fedcd2e2- | 
[V:4] F,2G,3F,E,D, | 
[V:1] z2c2d4 | 
[V:2] z8 | 
[V:3] edc4B2 | 
[V:4] E,2F,2D,4 | 
[V:1] e4c2f2- | 
[V:2] z2c4A2 | 
[V:3] c2g2a4 | 
[V:4] C,4F,4 | 
[V:1] fedcd2e2- | 
[V:2] d4G2g2 | 
[V:3] f2g3fed | 
[V:4] D,2G,4C,2 | 
[V:1] edc4B2 | 
[V:2] e2a2g4 | 
[V:3] e2f2d4 | 
[V:4] C2F,2G,4 | 
[V:1] c4z4 | 
[V:2] gfede2c2 | 
[V:3] c8 | 
[V:4] C,8 | 
[V:1] d6d2 | 
[V:2] g4G4 | 
[V:3] z8 | 
[V:4] z2G,4A,2 | 
[V:1] d4d4 | 
[V:2] z4g4 | 
[V:3] z8 | 
[V:4] B,2C4B,2 | 
[V:1] e6dc | 
[V:2] g6fe | 
[V:3] z8 | 
[V:4] C4C,4 | 
[V:1] B3cdcd2- | 
[V:2] dcBAG4 | 
[V:3] z4d4 | 
[V:4] G,4G,4 | 
[V:1] d2cBA4 | 
[V:2] A8 | 
[V:3] d4d4 | 
[V:4] F,4F,4 | 
[V:1] G8 | 
[V:2] B2c2G3A | 
[V:3] e6dc | 
[V:4] E,4z2G,2 | 
[V:1] z8 | 
[V:2] Bcd4cB | 
[V:3] B3ABcd2- | 
[V:4] G,2G,2D,3E, | 
[V:1] z8 | 
[V:2] A2G2d4 | 
[V:3] d2cBA4 | 
[V:4] F,2G,4^F,2 | 
[V:1] d4d2d2 | 
[V:2] z2g4fe | 
[V:3] G8 | 
[V:4] G,8 | 
[V:1] d4d4 | 
[V:2] d3ef4 | 
[V:3] z8 | 
[V:4] z8 | 
[V:1] e6dc | 
[V:2] e2c2g4 | 
[V:3] z8 | 
[V:4] z8 | 
[V:1] B3cdcd2- | 
[V:2] G4z4 | 
[V:3] d8 | 
[V:4] z2G,4F,E, | 
[V:1] d2cBA4 | 
[V:2] z4A4 | 
[V:3] d4d4 | 
[V:4] D,3E,F,4 | 
[V:1] G8 | 
[V:2] B2c3BG2- | 
[V:3] e6dc | 
[V:4] E,2C,3D,E,F, | 
[V:1] z8 | 
[V:2] GABcd4 | 
[V:3] B3ABcd2- | 
[V:4] G,3F,D,2B,2- | 
[V:1] z8 | 
[V:2] G4z4 | 
[V:3] d2cBA4 | 
[V:4] B,A,G,4^F,2 | 
[V:1] z8 | 
[V:2] z8 | 
[V:3] G8 | 
[V:4] G,4z4 | 
[V:1] B6B2 | 
[V:2] g8 | 
[V:3] z4d4 | 
[V:4] G,8 | 
[V:1] B4B4 | 
[V:2] g4g4 | 
[V:3] d4d4 | 
[V:4] G,4G,4 | 
[V:1] A2c4BA | 
[V:2] e8 | 
[V:3] c4A4 | 
[V:4] A,6G,F, | 
[V:1] G8 | 
[V:2] e4d4- | 
[V:3] B2G3ABc | 
[V:4] E,3F,G,F,G,2- | 
[V:1] z2c2d4 | 
[V:2] d2e2f2d2 | 
[V:3] dGc4B2 | 
[V:4] G,2F,E,D,4 | 
[V:1] e4d2e2- | 
[V:2] g8 | 
[V:3] c4B4 | 
[V:4] C,4G,4 | 
[V:1] edcBc4 | 
[V:2] e6f2 | 
[V:3] c4c4 | 
[V:4] A,4A,4 | 
[V:1] B3ABcd2- | 
[V:2] g3fg2a2 | 
[V:3] d3cdef2 | 
[V:4] G,6F,2 | 
[V:1] d2c4B2 | 
[V:2] g2f2g4 | 
[V:3] e2c2d4 | 
[V:4] G,2A,2G,4 | 
[V:1] [M:3/1]c8z4 [I:setbarnb 140]| 
[V:2] [M:3/1]g8z4 | 
[V:3] [M:3/1]c12 | 
[V:4] [M:3/1]C,8z4 | 
[V:1] G4G4G4 | 
[V:2] e4e4e4 | 
[V:3] z12 | 
[V:4] C4C4C4 | 
[V:1] A8A4 | 
[V:2] f8f4 | 
[V:3] c4c4c4 | 
[V:4] F,6G,2A,4 | 
[V:1] B8z4 | 
[V:2] g8z4 | 
[V:3] d8d4 | 
[V:4] G,8z4 | 
[V:1] G4G4G4 | 
[V:2] e4e4e4 | 
[V:3] e8z4 | 
[V:4] C4C4C4 | 
[V:1] A8A4 | 
[V:2] f8f4 | 
[V:3] c4c4c4 | 
[V:4] F,6G,2A,4 | 
[V:1] B8B4 | 
[V:2] g12 | 
[V:3] d8d4 | 
[V:4] G,6A,2B,4 | 
[V:1] G4c8 | 
[V:2] c4e4f4 | 
[V:3] e8c4 | 
[V:4] C4A,8 | 
[V:1] B8z4 | 
[V:2] g8z4 | 
[V:3] d4e4d3c | 
[V:4] G,8F,4 | 
[V:1] z12 | 
[V:2] z12 | 
[V:3] c8B4 | 
[V:4] E,4D,8 | 
[V:1] [M:2/1]z8 [I:setbarnb 149]| 
[V:2] [M:2/1]z2c3def | 
[V:3] [M:2/1]c3defg2- | 
[V:4] [M:2/1]C,4z2C,2- | 
[V:1] z2G3ABc | 
[V:2] g6fe | 
[V:3] g2fed4- | 
[V:4] C,D,E,F,G,3A, | 
[V:1] d2e2d2e2- | 
[V:2] d2g6 | 
[V:3] d2c2d2c2- | 
[V:4] B,2C2B,2C2- | 
[V:1] edB2c2A2 | 
[V:2] g4e2f2 | 
[V:3] cde2c2d2 | 
[V:4] CB,G,2A,2F,2 | 
[V:1] B2c3BG2 | 
[V:2] d2c3de2 | 
[V:3] B2A3Bc2 | 
[V:4] G,2A,3G,E,2 | 
[V:1] A2F2G2A2- | 
[V:2] c2d2B2A2- | 
[V:3] A2B2G2c2- | 
[V:4] F,2D,2E,2F,2- | 
[V:1] AGE2F2D2 | 
[V:2] ABc2A2B2 | 
[V:3] cdefd4 | 
[V:4] F,E,C,2D,2B,,2 | 
[V:1] E2e3fg2 | 
[V:2] G2c4B2 | 
[V:3] g6fe | 
[V:4] C,4z2G,2 | 
[V:1] f2d2e2dc | 
[V:2] c2dBc2B2 | 
[V:3] f2g2e2g2 | 
[V:4] A,2B,2C2G,2 | 
[V:1] d2c4B2 | 
[V:2] c4g4 | 
[V:3] fedcd4 | 
[V:4] A,4G,4 | 
[V:1] c8- | 
[V:2] e6dc | 
[V:3] c8- | 
[V:4] C,8- | 
[V:1] c8 |]  
[V:2] g8 |]  
[V:3] c8 |]  
[V:4] C,8 |]  



